X: 27849
T: Mother's Delight
R: reel
M: 4/4
K: Gmajor
d4|:Bdgd BGGB|Ac=fc A=FFc|Bdgd BGGB|A/c/A ^FB AGGc|
Bdgd BGGB|Ac=fc A=FFc|_B2BA Bd=fd|cA^F=B AGGA:|
|:[D2_B2]BA [G2B2]GA|~_B3d cBAB|Ggga g^fga|=bg{b}af defd|
gagf d^cde|=fdc_B A=F~F2|Gg g/g/g dg=bg|=fdcA =BGGA:|

